X: 1669
T: The Little One Waltz Step Tune
B: australian traditional tunes wiki
M:3/4
L:1/8
R: Waltz
Q: 1/4=100
K:D
V:1 
"D"A2Bc d>e|fa fd Ad|"A7"ce Bc GB|"Em"E4"Em7"d2|"A7"ce Bc GB|"Em"E2F2G2|"G"(3BcB A2G2|"D"F4A2|
A2Bc d>e|fa fd Ad|"A7"ce Bc GB|"G"b,4"D"af|"A7"a2g3G|g2f2e2|"D"d2Ad FA|D4GE|
"D"D2f'd' af|d4 (3dfd|"A7"c2 c'b ge|c4C2|c2c'b  ge|c2c'b ge|"D"d2f'd' af|d4(3cec|
"D"D2f'd' af|"D"D2f'd' ag|"A7"c2c'b ge|c4A2|A2c2e2|g2f2e2|"D"d2Ad FA|1"D"D4(3BcB:|2"D"D6||
% abcbook-tune_id 6342d53a87298d30ae37fb31


% abcbook-boost 0
% abcbook-tablature 
% abcbook-transpose 
% abcbook-lastupdated 1665324377078
% abcbook-soundfonts 
% abcbook-repeats 1
% NFF Book 2015

